X: 1231
T:Gan Ainm
M:4/4
L:1/8
R:Reel
D:Session tape - Corofin, Clare
Z:Bernie Stocks
K:D
fd~d2 edcA | BGEF GBAG |1 F3A G3B | ABde gbag :|2 F3A G3B | Adag fdd2 \
|: fd~d2 fdfa | ge(3.e.e.e gebe|1 fdAF G2AG | FAdf gbag :|2 fdAF G2AG | F2ag fdd2 ||
